MonoIcons/scalable/status/audio-volume-medium-symbolic-rtl.svg

<?xml version="1.0" encoding="UTF-8"?>
<svg height="16px" viewBox="0 0 16 16" width="16px" xmlns="http://www.w3.org/2000/svg">
    <g fill="#2e3436">
        <path d="m 9 1.007812 c 0.296875 -0.003906 0.578125 0.125 0.769531 0.351563 l 3.230469 3.640625 h 1 c 1.09375 0 2 0.84375 2 2 v 2 c 0 1.089844 -0.910156 2 -2 2 h -1 l -3.230469 3.640625 c -0.210937 0.253906 -0.492187 0.363281 -0.769531 0.359375 z m -3.039062 2.980469 c 0.222656 -0.007812 0.453124 0.058594 0.644531 0.203125 c 0.261719 0.199219 0.394531 0.5 0.394531 0.804688 v 0.066406 c -0.011719 0.1875 -0.078125 0.371094 -0.199219 0.527344 c -1.074219 1.429687 -1.074219 3.390625 0 4.816406 c 0.121094 0.160156 0.1875 0.34375 0.199219 0.53125 v 0.066406 c 0 0.304688 -0.132812 0.605469 -0.394531 0.804688 c -0.441407 0.332031 -1.066407 0.242187 -1.398438 -0.199219 c -0.804687 -1.066406 -1.207031 -2.335937 -1.207031 -3.609375 s 0.402344 -2.542969 1.207031 -3.613281 c 0.183594 -0.246094 0.464844 -0.382813 0.753907 -0.398438 z m 0 0"/>
        <path d="m 2.539062 1.96875 c 0.191407 -0.003906 0.386719 0.054688 0.558594 0.167969 c 0.457032 0.3125 0.578125 0.933593 0.269532 1.390625 c -1.824219 2.707031 -1.824219 6.238281 0 8.945312 c 0.308593 0.457032 0.1875 1.078125 -0.269532 1.390625 c -0.457031 0.308594 -1.078125 0.1875 -1.390625 -0.269531 c -1.136719 -1.691406 -1.707031 -3.640625 -1.707031 -5.59375 s 0.570312 -3.902344 1.707031 -5.59375 c 0.195313 -0.285156 0.511719 -0.4375 0.832031 -0.4375 z m 0 0" fill-opacity="0.34902"/>
    </g>
</svg>

<svg width="16" height="16" viewBox="0 0 16 16" fill="none" xmlns="http://www.w3.org/2000/svg">
<g clip-path="url(#clip0_231_1233)">
<path d="M9.00001 1.00753C9.29688 1.00363 9.57813 1.13253 9.76954 1.3591L13 4.99972H14C15.0938 4.99972 16 5.84348 16 6.99973V8.99973C16 10.0896 15.0899 10.9997 14 10.9997H13L9.76954 14.6404C9.5586 14.8943 9.27735 15.0036 9.00001 14.9997V1.00753ZM5.96094 3.988C6.1836 3.98019 6.41406 4.0466 6.60547 4.19113C6.86719 4.39035 7 4.69113 7 4.99582V5.06222C6.98828 5.24973 6.92188 5.43332 6.80078 5.58957C5.72656 7.01926 5.72656 8.9802 6.80078 10.406C6.92188 10.5661 6.98828 10.7497 7 10.9372V11.0036C7 11.3083 6.86719 11.6091 6.60547 11.8083C6.16406 12.1404 5.53906 12.0505 5.20703 11.6091C4.40234 10.5427 4 9.27317 4 7.99973C4 6.72629 4.40234 5.45676 5.20703 4.38644C5.39063 4.14035 5.67188 4.00363 5.96094 3.988V3.988Z" fill="#2E3436"/>
<path d="M2.53906 1.96832C2.73047 1.96442 2.92578 2.02301 3.09766 2.13629C3.55469 2.44879 3.67578 3.06989 3.36719 3.52692C1.54297 6.23395 1.54297 9.76521 3.36719 12.4722C3.67578 12.9293 3.55469 13.5504 3.09766 13.8629C2.64063 14.1715 2.01953 14.0504 1.70703 13.5933C0.570313 11.9019 0 9.95271 0 7.99958C0 6.04645 0.570313 4.09723 1.70703 2.40582C1.90235 2.12067 2.21875 1.96832 2.53906 1.96832V1.96832Z" fill="#2E3436" fill-opacity="0.5"/>
</g>
<defs>
<clipPath id="clip0_231_1233">
<rect width="16" height="16" fill="white"/>
</clipPath>
</defs>
</svg>
